contributed-vectors/vidmate.svg

<?xml version="1.0" encoding="UTF-8" standalone="no"?>
<svg
   xmlns:dc="http://purl.org/dc/elements/1.1/"
   xmlns:cc="http://creativecommons.org/ns#"
   xmlns:rdf="http://www.w3.org/1999/02/22-rdf-syntax-ns#"
   xmlns:svg="http://www.w3.org/2000/svg"
   xmlns="http://www.w3.org/2000/svg"
   xmlns:xlink="http://www.w3.org/1999/xlink"
   xmlns:sodipodi="http://sodipodi.sourceforge.net/DTD/sodipodi-0.dtd"
   xmlns:inkscape="http://www.inkscape.org/namespaces/inkscape"
   sodipodi:docname="vidmate.svg"
   inkscape:version="1.0.1 (3bc2e813f5, 2020-09-07)"
   version="1.1"
   id="svg2"
   viewBox="0 0 192 192"
   height="192"
   width="192"
   inkscape:export-filename="/home/jphilippe/inkscape/icônes/delta-github/png/vidmate.png"
   inkscape:export-xdpi="96"
   inkscape:export-ydpi="96">
  <sodipodi:namedview
     inkscape:document-rotation="0"
     inkscape:window-maximized="1"
     inkscape:window-y="0"
     inkscape:window-x="36"
     inkscape:window-height="1052"
     inkscape:window-width="1884"
     units="px"
     showgrid="false"
     inkscape:current-layer="layer1"
     inkscape:document-units="px"
     inkscape:cy="132.16548"
     inkscape:cx="309.50547"
     inkscape:zoom="1.4142136"
     inkscape:pageshadow="2"
     inkscape:pageopacity="0.0"
     borderopacity="1.0"
     bordercolor="#666666"
     pagecolor="#ffffff"
     id="base"
     inkscape:snap-bbox="false"
     inkscape:object-paths="true"
     inkscape:snap-nodes="true"
     showguides="true"
     inkscape:guide-bbox="true"
     inkscape:snap-object-midpoints="true"
     inkscape:snap-center="true"
     inkscape:snap-global="true"
     inkscape:snap-intersection-paths="true"
     inkscape:snap-smooth-nodes="true"
     inkscape:snap-midpoints="true">
    <inkscape:grid
       type="xygrid"
       id="grid1341" />
  </sodipodi:namedview>
  <defs
     id="defs4">
    <path
       d="M36.083832,1.57575485e-14 C37.7562243,1.24948257e-14 39.2914301,0.92505015 40.0728885,2.40363692 L40.0728885,2.40363692 L80.6129982,79.1090244 L55.0615585,79.1090244 C53.3867563,79.1090244 51.8497523,78.1813321 51.0693709,76.6994526 L51.0693709,76.6994526 L17.5277284,13.0066585 L10.6782143,1.57575485e-14 Z M71.5342325,70.2348954 L66.5602325,70.2348954 L69.182797,75.1986924 L74.1459107,75.1986924 L71.5342325,70.2348954 Z M66.7072325,61.0608954 L61.7142325,61.0608954 L64.3362325,66.0238954 L69.3182325,66.0238954 L66.7072325,61.0608954 Z M61.8812325,51.8868954 L56.8672325,51.8868954 L59.4892325,56.8498954 L64.4922325,56.8498954 L61.8812325,51.8868954 Z M57.0542325,42.7118954 L52.0202325,42.7118954 L54.6422325,47.6758954 L59.6662325,47.6758954 L57.0542325,42.7118954 Z M52.2272325,33.5378954 L47.1742325,33.5378954 L49.7962325,38.5008954 L54.8382325,38.5008954 L52.2272325,33.5378954 Z M47.4012325,24.3638954 L42.3282325,24.3638954 L44.9502325,29.3268954 L50.0122325,29.3268954 L47.4012325,24.3638954 Z M42.5752325,15.1898954 L37.4822325,15.1898954 L40.1042325,20.1528954 L45.1862325,20.1528954 L42.5752325,15.1898954 Z M37.7497436,6.01589539 L32.6362325,6.01589539 L35.2582325,10.9788954 L40.3602325,10.9788954 L37.7497436,6.01589539 Z"
       id="path-9" />
    <path
       d="M37.4489488,0 C29.7786822,0 20.7548391,0 10.6782143,0 C8.57265093,0.300794769 4.51192154,2.40635816 0,6.01589539 C14.4381489,6.01589539 13.0845725,6.01589539 27.2219266,6.01589539 C28.7823345,4.13237187 32.7361447,0.447154414 37.4489488,0 Z"
       id="path-11" />
  </defs>
  <metadata
     id="metadata7">
    <rdf:RDF>
      <cc:Work
         rdf:about="">
        <dc:format>image/svg+xml</dc:format>
        <dc:type
           rdf:resource="http://purl.org/dc/dcmitype/StillImage" />
        <dc:title></dc:title>
      </cc:Work>
    </rdf:RDF>
  </metadata>
  <g
     transform="translate(0,-860.36216)"
     id="layer1"
     inkscape:groupmode="layer"
     inkscape:label="Calque 1">
    <polygon
       id="polygon1512"
       fill="#ff8279"
       fill-rule="evenodd"
       points="118.36855,3.049307 80.66803,77.341513 73.460577,77.341513 70.41127,63.481027 108.52761,3.049307 "
       style="fill:#ececec;fill-opacity:1;stroke:none;stroke-width:1"
       transform="matrix(1.4477031,0,0,1.4477031,7.8142956,899.09897)" />
    <path
       d="m 182.87906,899.09897 c 0.21277,0 0.42233,0.052 0.61044,0.15139 0.63789,0.33714 0.88169,1.12754 0.54455,1.76543 v 0 l -59.51606,112.60951 -3.29692,-5.662 0.031,10e-4 3.79669,-7.1861 h -7.20088 l -0.38644,0.7298 -14.49875,-24.89689 40.04609,-75.43074 c 0.67995,-1.28075 2.01151,-2.0814 3.46157,-2.0814 v 0 z M 132.06428,987.497 h -7.22838 l -3.77995,7.18495 h 7.21245 z m 7.01702,-13.28123 h -7.25878 l -3.77996,7.18495 h 7.24287 z m 7.01702,-13.28267 h -7.28774 l -3.7814,7.1864 h 7.27326 z m 7.01556,-13.28123 h -7.31524 l -3.77995,7.18495 h 7.29932 z m 7.01557,-13.28122 h -7.3442 l -3.77995,7.18494 h 7.32828 z m 7.01557,-13.28123 h -7.37315 l -3.77995,7.18495 h 7.35723 z m 7.01557,-13.28121 h -7.40284 l -3.77922,7.18493 h 7.38619 z"
       id="path1514"
       fill="#ffffff"
       fill-rule="evenodd"
       style="fill:#ba6561;fill-opacity:1;stroke:none;stroke-width:1.44771" />
    <polygon
       id="polygon1516"
       fill="#ff6d6a"
       fill-rule="evenodd"
       points="29.800045,5.1283799 39.640991,5.1283799 76.787094,77.341513 66.946149,77.341513 "
       style="fill:#ffffff;fill-opacity:1;stroke:none;stroke-width:1"
       transform="matrix(1.4477031,0,0,1.4477031,7.8142956,899.09897)" />
    <use
       fill="#ffffff"
       fill-rule="evenodd"
       xlink:href="#path-9"
       id="use1518"
       x="0"
       y="0"
       width="100%"
       height="100%"
       style="fill:#ff837d;fill-opacity:1;stroke:none;stroke-width:1"
       transform="matrix(1.4477031,0,0,1.4477031,7.8142956,899.09897)" />
    <use
       fill="#ffffff"
       fill-rule="evenodd"
       xlink:href="#path-11"
       id="use1520"
       x="0"
       y="0"
       width="100%"
       height="100%"
       style="fill:#ba6561;fill-opacity:1;stroke:none;stroke-width:1"
       transform="matrix(1.4477031,0,0,1.4477031,7.8142956,899.09897)" />
  </g>
  <style
     type="text/css"
     id="style853">
	.st0{fill:#FFFFFF;}
</style>
  <style
     type="text/css"
     id="style853-9">
	.st0{fill:#FFFFFF;}
</style>
  <style
     type="text/css"
     id="style853-3">
	.st0{fill:#FFFFFF;}
</style>
</svg>

<svg xmlns="http://www.w3.org/2000/svg" xmlns:xlink="http://www.w3.org/1999/xlink" id="svg2" width="192" height="192" version="1.1"><defs id="defs4"><path id="path-9" d="M36.084 0c1.672 0 3.207.925 3.989 2.404l40.54 76.705H55.062a4.512 4.512 0 0 1-3.993-2.41L17.528 13.007 10.678 0Zm35.45 70.235H66.56l2.623 4.964h4.963l-2.612-4.964Zm-4.827-9.174h-4.993l2.622 4.963h4.982l-2.61-4.963Zm-4.826-9.174h-5.014l2.622 4.963h5.003l-2.61-4.963Zm-4.827-9.175H52.02l2.622 4.964h5.024l-2.612-4.964Zm-4.827-9.174h-5.053l2.622 4.963h5.042l-2.61-4.963Zm-4.826-9.174h-5.073l2.622 4.963h5.062l-2.61-4.963Zm-4.826-9.174h-5.093l2.622 4.963h5.082l-2.61-4.963ZM37.75 6.016h-5.114l2.622 4.963h5.102l-2.61-4.963Z"/><path id="path-11" d="M37.449 0h-26.77C8.572.3 4.511 2.406 0 6.016h27.222C28.782 4.132 32.736.447 37.449 0Z"/></defs><g id="layer1" transform="translate(0 -860.362)"><path id="polygon1512" fill="#ff8279" fill-rule="evenodd" d="M118.369 3.05 80.668 77.341h-7.207L70.41 63.48l38.117-60.432z" style="fill:#ececec;fill-opacity:1;stroke:none;stroke-width:1" transform="matrix(1.4477 0 0 1.4477 7.814 899.099)"/><path id="path1514" fill="#fff" fill-rule="evenodd" d="M182.88 899.099a1.307 1.307 0 0 1 1.154 1.917l-59.516 112.61-3.297-5.663.031.001 3.797-7.186h-7.201l-.387.73-14.498-24.897 40.046-75.43a3.92 3.92 0 0 1 3.461-2.082zm-50.816 88.398h-7.228l-3.78 7.185h7.212zm7.017-13.281h-7.258l-3.78 7.185h7.242zm7.017-13.283h-7.287l-3.782 7.186h7.273zm7.016-13.281h-7.315l-3.78 7.185h7.299zm7.015-13.281h-7.344l-3.78 7.185h7.329zm7.016-13.282h-7.373l-3.78 7.185h7.357zm7.016-13.28h-7.403l-3.78 7.184h7.387z" style="fill:#ba6561;fill-opacity:1;stroke:none;stroke-width:1.44771"/><path id="polygon1516" fill="#ff6d6a" fill-rule="evenodd" d="M29.8 5.128h9.841l37.146 72.214h-9.84z" style="fill:#fff;fill-opacity:1;stroke:none;stroke-width:1" transform="matrix(1.4477 0 0 1.4477 7.814 899.099)"/><use xlink:href="#path-9" id="use1518" width="100%" height="100%" x="0" y="0" fill="#fff" fill-rule="evenodd" style="fill:#ff837d;fill-opacity:1;stroke:none;stroke-width:1" transform="matrix(1.4477 0 0 1.4477 7.814 899.099)"/><use xlink:href="#path-11" id="use1520" width="100%" height="100%" x="0" y="0" fill="#fff" fill-rule="evenodd" style="fill:#ba6561;fill-opacity:1;stroke:none;stroke-width:1" transform="matrix(1.4477 0 0 1.4477 7.814 899.099)"/></g><style id="style853" type="text/css">.st0{fill:#fff}</style></svg>
